public/library/nexus-text-dark.svg

<svg width="136" height="42" viewBox="0 0 136 42" fill="none" xmlns="http://www.w3.org/2000/svg">
<g clip-path="url(#clip0_16627_7059)">
<path d="M41.6464 13.0198H42.8091L53.3698 27.1213V13.0198H54.5325V28.9803H53.3698L42.8091 14.8788V28.9803H41.6464V13.0198ZM65.9801 14.158V20.2908H74.8197V21.4058H65.9801V27.8405H75.6108V28.9786H64.7942V13.0198H75.6108V14.158H65.9801ZM89.7539 21.0116L95.8485 28.9803H94.4066L89.0338 21.9403L83.6362 28.9803H82.1943L88.312 21.0116L82.1943 13.0198H83.6362L89.0338 20.0598L94.4297 13.0198H95.8716L89.7539 21.0116ZM106.549 28.271C105.588 27.7052 104.835 26.9233 104.293 25.9238C103.75 24.9242 103.479 23.791 103.479 22.5209V12.8796H104.642V22.5209C104.642 23.5749 104.863 24.5184 105.304 25.3547C105.747 26.191 106.363 26.8409 107.154 27.306C107.945 27.7712 108.837 28.0038 109.83 28.0038C110.822 28.0038 111.732 27.7712 112.517 27.306C113.3 26.8409 113.913 26.191 114.355 25.3547C114.798 24.5184 115.017 23.5732 115.017 22.5209V12.8796H116.18V22.5209C116.18 23.791 115.909 24.9258 115.366 25.9238C114.823 26.9233 114.071 27.7052 113.11 28.271C112.149 28.8367 111.055 29.1188 109.83 29.1188C108.604 29.1188 107.511 28.8367 106.549 28.271ZM127.078 28.5844C125.984 28.1423 125.035 27.5205 124.229 26.7139L124.95 25.8083C125.679 26.5357 126.528 27.1048 127.497 27.5155C128.467 27.9262 129.486 28.1308 130.556 28.1308C131.408 28.1308 132.157 27.9906 132.801 27.7118C133.445 27.433 133.944 27.0454 134.3 26.5506C134.657 26.0557 134.836 25.5048 134.836 24.9011C134.836 24.0335 134.471 23.3374 133.742 22.8095C133.014 22.2833 131.82 21.8264 130.16 21.4388C128.33 21.0198 127 20.4986 126.169 19.8702C125.34 19.2433 124.926 18.379 124.926 17.2805C124.926 16.4128 125.15 15.6343 125.6 14.9464C126.049 14.257 126.67 13.7192 127.461 13.3316C128.252 12.944 129.144 12.751 130.137 12.751C131.129 12.751 132.142 12.9489 133.08 13.3431C134.018 13.7374 134.883 14.2998 135.673 15.0273L134.951 15.9328C134.269 15.2829 133.504 14.7749 132.66 14.4104C131.815 14.0458 130.951 13.8644 130.067 13.8644C129.308 13.8644 128.625 14.0079 128.021 14.2949C127.416 14.5819 126.947 14.9761 126.614 15.4792C126.28 15.9823 126.113 16.5514 126.113 17.1864C126.113 17.9617 126.473 18.5803 127.195 19.0454C127.917 19.5106 129.098 19.9444 130.743 20.3469C132.558 20.7807 133.888 21.3382 134.732 22.0194C135.577 22.7007 136 23.631 136 24.8071C136 25.6433 135.775 26.3988 135.326 27.0718C134.877 27.7448 134.241 28.2759 133.418 28.6636C132.596 29.0512 131.635 29.2442 130.533 29.2442C129.324 29.2442 128.173 29.0231 127.079 28.5827L127.078 28.5844Z" fill="#FFFFFF"/>
<path opacity="0.2" d="M13.8738 21L0 29V13L13.8738 21Z" fill="#FFFFFF"/>
<path d="M13.8739 21V5L27.7494 13L13.8739 21Z" fill="url(#paint0_radial_16627_7059)"/>
<path opacity="0.8" d="M27.7477 13V28.9983L13.8739 21L27.7477 13Z" fill="#FFFFFF"/>
<path opacity="0.5" d="M13.8738 21V37L0 29L13.8738 21Z" fill="#FFFFFF"/>
<path d="M13.8738 21L0 13L13.8738 5V21Z" fill="url(#paint1_radial_16627_7059)"/>
<path d="M13.8739 37V21L27.7477 28.9984L27.7494 29L13.8739 37Z" fill="#FFFFFF"/>
</g>
<defs>
<radialGradient id="paint0_radial_16627_7059" cx="0" cy="0" r="1" gradientUnits="userSpaceOnUse" gradientTransform="translate(7.60425 20.6371) rotate(180) scale(11.8968 11.8812)">
<stop offset="0.1" stop-color="#FFFFFF" stop-opacity="0.1"/>
<stop offset="1" stop-color="#FFFFFF" stop-opacity="0.5"/>
</radialGradient>
<radialGradient id="paint1_radial_16627_7059" cx="0" cy="0" r="1" gradientUnits="userSpaceOnUse" gradientTransform="translate(7.76439 21.1155) rotate(180) scale(14.0621 14.0437)">
<stop offset="0.1" stop-color="#FFFFFF" stop-opacity="0.29"/>
<stop offset="1" stop-color="#FFFFFF"/>
</radialGradient>
<clipPath id="clip0_16627_7059">
<rect width="136" height="32" fill="white" transform="translate(0 5)"/>
</clipPath>
</defs>
</svg>

<svg xmlns="http://www.w3.org/2000/svg" width="136" height="42" fill="none" viewBox="0 0 136 42"><g clip-path="url(#a)"><path fill="#fff" d="M41.646 13.02h1.163L53.37 27.12V13.02h1.163v15.96H53.37L42.81 14.88V28.98h-1.164zm24.334 1.138v6.133h8.84v1.115h-8.84v6.435h9.63v1.138H64.795v-15.96h10.817v1.139zm23.774 6.854 6.094 7.968h-1.441l-5.373-7.04-5.398 7.04h-1.442l6.118-7.968-6.118-7.992h1.442l5.398 7.04 5.396-7.04h1.442zm16.795 7.259a6 6 0 0 1-2.256-2.347q-.814-1.499-.814-3.403V12.88h1.163v9.64q0 1.581.662 2.835a4.84 4.84 0 0 0 1.85 1.951q1.187.698 2.676.698c.992 0 1.902-.233 2.687-.698a4.86 4.86 0 0 0 1.838-1.951q.663-1.256.662-2.834V12.88h1.163v9.64q0 1.907-.814 3.404a6 6 0 0 1-2.256 2.347q-1.442.848-3.28.848t-3.281-.848m20.529.313a8.5 8.5 0 0 1-2.849-1.87l.721-.906a8 8 0 0 0 2.547 1.707q1.455.616 3.059.616 1.278 0 2.245-.42.966-.418 1.499-1.16a2.76 2.76 0 0 0 .536-1.65q0-1.3-1.094-2.091-1.092-.79-3.582-1.371c-1.83-.42-3.16-.94-3.991-1.569q-1.243-.941-1.243-2.59 0-1.301.674-2.334t1.861-1.614 2.676-.581c.992 0 2.005.198 2.943.592a8.9 8.9 0 0 1 2.593 1.684l-.722.906a7.8 7.8 0 0 0-2.291-1.523 6.5 6.5 0 0 0-2.593-.546q-1.14 0-2.046.43-.907.431-1.407 1.185a3 3 0 0 0-.501 1.707q0 1.162 1.082 1.86 1.082.697 3.548 1.3 2.723.652 3.989 1.673Q136 23.042 136 24.807q0 1.255-.674 2.265t-1.908 1.592q-1.232.58-2.885.58a9.2 9.2 0 0 1-3.454-.661z"/><path fill="#fff" d="M13.874 21 0 29V13z" opacity=".2"/><path fill="url(#b)" d="M13.874 21V5l13.875 8z"/><path fill="#fff" d="M27.748 13v15.998L13.874 21z" opacity=".8"/><path fill="#fff" d="M13.874 21v16L0 29z" opacity=".5"/><path fill="url(#c)" d="M13.874 21 0 13l13.874-8z"/><path fill="#fff" d="M13.874 37V21l13.874 7.998.001.002z"/></g><defs><radialGradient id="b" cx="0" cy="0" r="1" gradientTransform="matrix(-11.8968 0 0 -11.8812 7.604 20.637)" gradientUnits="userSpaceOnUse"><stop offset=".1" stop-color="#fff" stop-opacity=".1"/><stop offset="1" stop-color="#fff" stop-opacity=".5"/></radialGradient><radialGradient id="c" cx="0" cy="0" r="1" gradientTransform="matrix(-14.0621 0 0 -14.0437 7.764 21.116)" gradientUnits="userSpaceOnUse"><stop offset=".1" stop-color="#fff" stop-opacity=".29"/><stop offset="1" stop-color="#fff"/></radialGradient><clipPath id="a"><path fill="#fff" d="M0 5h136v32H0z"/></clipPath></defs></svg>
